images/snt.svg

<svg height="250" viewBox="0 0 250 250" width="250" xmlns="http://www.w3.org/2000/svg"><path d="m146.085938 123.847656c-14.984376.863282-24.371094-2.617187-39.355469-1.753906-3.71875.207031-7.40625.742188-11.027344 1.605469 2.210937-27.628907 21.820313-51.800781 48.488281-53.335938 16.363282-.941406 32.722656 9.132813 33.609375 25.488281.871094 16.074219-11.417969 26.828126-31.714843 27.996094m-40.234376 56.515625c-15.675781.882813-31.34375-8.546875-32.195312-23.851562-.835938-15.046875 10.941406-25.109375 30.382812-26.203125 14.351563-.804688 23.347657 2.453125 37.699219 1.644531 3.558594-.195313 7.09375-.699219 10.5625-1.503906-2.113281 25.855469-20.898437 48.476562-46.449219 49.914062m19.148438-180c-69.035156 0-125 55.800781-125 124.636719s55.964844 124.636719 125 124.636719 125-55.800781 125-124.636719-55.964844-124.636719-125-124.636719" fill="#4360df" fill-rule="evenodd"/></svg>

<svg xmlns="http://www.w3.org/2000/svg" xmlns:xlink="http://www.w3.org/1999/xlink" width="250px" height="250px" viewBox="0 0 250 250" version="1.1">
<g id="surface1">
<path style=" stroke:none;fill-rule:evenodd;fill:rgb(26.274511%,37.64706%,87.450981%);fill-opacity:1;" d="M 146.085938 123.847656 C 131.101562 124.710938 121.714844 121.230469 106.730469 122.09375 C 103.011719 122.300781 99.324219 122.835938 95.703125 123.699219 C 97.914062 96.070312 117.523438 71.898438 144.191406 70.363281 C 160.554688 69.421875 176.914062 79.496094 177.800781 95.851562 C 178.671875 111.925781 166.382812 122.679688 146.085938 123.847656 M 105.851562 180.363281 C 90.175781 181.246094 74.507812 171.816406 73.65625 156.511719 C 72.820312 141.464844 84.597656 131.402344 104.039062 130.308594 C 118.390625 129.503906 127.386719 132.761719 141.738281 131.953125 C 145.296875 131.757812 148.832031 131.253906 152.300781 130.449219 C 150.1875 156.304688 131.402344 178.925781 105.851562 180.363281 M 125 0.363281 C 55.964844 0.363281 0 56.164062 0 125 C 0 193.835938 55.964844 249.636719 125 249.636719 C 194.035156 249.636719 250 193.835938 250 125 C 250 56.164062 194.035156 0.363281 125 0.363281 "/>
</g>
</svg>
